src/main/resources/ilovedevtoys/toolicons/DataFaker_dark.svg

<svg ti:v='1' width='24' height='24' viewBox='0,0,16,16' xmlns='http://www.w3.org/2000/svg' xmlns:ti='urn:schemas-jetbrains-com:tisvg'><g><path fill-rule='evenodd' d='M0,0L16,0L16,16L0,16Z' fill='#FFFFFF' opacity='0'/><path fill-rule='evenodd' d='M5,13.250000817871097L5,7.7509008178710914L10,5.0000008178710971L15,7.7509008178710914L15,13.250000817871097L10,16.000000817871097L5,13.250000817871097Z' fill='#242424'/><path fill-rule='evenodd' d='M6,8.8007008178710961L6,12.658800817871096L10,14.858800817871092L10,10.99980081787109L6,8.8007008178710961Z' fill='#B180D3'/><path fill-rule='evenodd' d='M14,8.8007008178710961L10,10.99980081787109L10,14.858800817871092L14,12.658800817871096L14,8.8007008178710961Z' fill='#B180D3'/><path fill-rule='evenodd' d='M13.378900000000002,8.0000008178710971L9.9998999999999967,9.85790081787109L6.6208999999999989,8.0000008178710971L5.9998999999999967,8.3419008178710925L5.9998999999999967,8.8010008178710919L9.9998999999999967,11.000000817871097L13.999899999999997,8.8010008178710919L13.999899999999997,8.3419008178710925L13.378900000000002,8.0000008178710971Z' fill='#282828'/><path fill-rule='evenodd' d='M10,9.8584008178710931L13.378999999999998,8.0004008178710961L10,6.1414008178710944L6.6210000000000022,8.0004008178710961L10,9.8584008178710931Z' fill='#B180D3'/><path fill-rule='evenodd' d='M9.4590000000000032,8.1787109706965566E-07L9.1929999999999978,8.1787109706965566E-07L8.39,0.30790081787109358C7.3539999999999992,0.70300081787109292,6.1820000000000022,0.91300081787109377,5,0.91300081787109377C3.8179999999999978,0.91300081787109377,2.6469999999999985,0.70300081787109292,1.6099999999999994,0.30790081787109358L0.80700000000000216,8.1787109706965566E-07L0.54099999999999682,8.1787109706965566E-07L0.28499999999999659,0.99100081787109673C0.095999999999996533,1.723000817871096,0,2.4799008178710906,0,3.2420008178710944C0,7.0310008178710959,2.195999999999998,10.000000817871097,5,10.000000817871097C7.804000000000002,10.000000817871097,10,7.0310008178710959,10,3.2420008178710944C10,2.4799008178710906,9.9040000000000035,1.723000817871096,9.7150000000000034,0.99100081787109673L9.4590000000000032,8.1787109706965566E-07Z' fill='#242424'/><path fill-rule='evenodd' d='M5,1.9130008178710938C3.6460000000000008,1.9130008178710938,2.3710000000000022,1.6691008178710902,1.2530000000000001,1.2410008178710967C1.0919999999999987,1.8651008178710953,1,2.5380008178710938,1,3.2421008178710906C1,6.42210081787109,2.7909999999999968,9.0001008178710933,5,9.0001008178710933C7.2090000000000032,9.0001008178710933,9,6.42210081787109,9,3.2421008178710906C9,2.5380008178710938,8.9080000000000013,1.8651008178710953,8.747,1.2410008178710967C7.6289999999999978,1.6691008178710902,6.3539999999999992,1.9130008178710938,5,1.9130008178710938Z' fill='#C3C3C3'/><path fill-rule='evenodd' d='M3,6.0000008178710971C3,7.0000008178710971,4.0399999999999991,8.0000008178710971,5,8.0000008178710971C5.9600000000000009,8.0000008178710971,7,7.0000008178710971,7,6.0000008178710971C6.384999999999998,6.7249008178710952,3.615000000000002,6.7249008178710952,3,6.0000008178710971Z' fill='#282828'/><path fill-rule='evenodd' d='M2.0604999999999976,3.0000008178710971C2.0234999999999985,3.1569008178710902,1.9994999999999976,3.3239008178710918,1.9994999999999976,3.5000008178710971C1.9994999999999976,4.3289008178710944,2.447499999999998,5.0000008178710971,2.9994999999999976,5.0000008178710971C3.552500000000002,5.0000008178710971,3.9994999999999976,4.3289008178710944,3.9994999999999976,3.5000008178710971C3.9994999999999976,3.3239008178710918,3.9765000000000015,3.1569008178710902,3.9395000000000024,3.0000008178710971L2.0604999999999976,3.0000008178710971Z' fill='#282828'/><path fill-rule='evenodd' d='M6.0604999999999976,3.0000008178710971C6.0234999999999985,3.1569008178710902,5.9994999999999976,3.3239008178710918,5.9994999999999976,3.5000008178710971C5.9994999999999976,4.3289008178710944,6.447499999999998,5.0000008178710971,6.9994999999999976,5.0000008178710971C7.552500000000002,5.0000008178710971,7.9994999999999976,4.3289008178710944,7.9994999999999976,3.5000008178710971C7.9994999999999976,3.3239008178710918,7.9765000000000015,3.1569008178710902,7.9395000000000024,3.0000008178710971L6.0604999999999976,3.0000008178710971Z' fill='#282828'/></g></svg>

<svg ti:v="1" width="24" height="24" viewBox="0 0 16 16" xmlns="http://www.w3.org/2000/svg" xmlns:ti="urn:schemas-jetbrains-com:tisvg"><g fill-rule="evenodd"><path d="M5 13.25v-5.5L10 5l5 2.75v5.5L10 16l-5-2.75Z" fill="#242424"/><path d="M6 8.8v3.859l4 2.2v-3.86L6 8.802Zm8 0L10 11v3.859l4-2.2V8.8Z" fill="#B180D3"/><path d="m13.379 8-3.38 1.858L6.622 8 6 8.342V8.8l4 2.2 4-2.199v-.46L13.379 8Z" fill="#282828"/><path d="M10 9.858 13.379 8 10 6.141l-3.379 1.86L10 9.857Z" fill="#B180D3"/><path d="M9.459 0h-.266L8.39.308A9.609 9.609 0 0 1 5 .913 9.613 9.613 0 0 1 1.61.308L.807 0H.541L.285.991A9.007 9.007 0 0 0 0 3.242C0 7.031 2.196 10 5 10s5-2.969 5-6.758c0-.762-.096-1.519-.285-2.251L9.459 0Z" fill="#242424"/><path d="M5 1.913a10.51 10.51 0 0 1-3.747-.672A8.016 8.016 0 0 0 1 3.242C1 6.422 2.791 9 5 9s4-2.578 4-5.758c0-.704-.092-1.377-.253-2.001A10.51 10.51 0 0 1 5 1.913Z" fill="#C3C3C3"/><path d="M3 6c0 1 1.04 2 2 2s2-1 2-2c-.615.725-3.385.725-4 0Zm-.94-3a2.172 2.172 0 0 0-.06.5C2 4.329 2.446 5 3 5c.553 0 1-.671 1-1.5 0-.176-.023-.343-.06-.5H2.06Zm4 0a2.172 2.172 0 0 0-.06.5C6 4.329 6.446 5 7 5c.553 0 1-.671 1-1.5 0-.176-.023-.343-.06-.5H6.06Z" fill="#282828"/></g></svg>
